app/img/icons/bread-right.svg

<svg width="22" height="25" viewBox="0 0 22 25" fill="none" xmlns="http://www.w3.org/2000/svg">
<path fill-rule="evenodd" clip-rule="evenodd" d="M15.9978 14.2902H9.8877L12.5799 6.12427L15.6257 6.14222L13.8571 11.5275L16.8939 11.5293L15.9978 14.2902Z" fill="url(#paint0_linear)"/>
<path fill-rule="evenodd" clip-rule="evenodd" d="M3.52421 24.8906H0.5C0.5 24.8906 6.00834 7.98319 7.29462 4.03635C7.89641 2.18972 9.62162 0.939453 11.5682 0.939453H16.9748C18.6052 0.939453 19.9659 1.62628 20.812 2.78691C21.6574 3.94759 21.8972 5.43273 21.4042 6.94781C20.9106 8.46289 20.4443 9.89308 20.0174 11.2035C19.4411 12.9728 17.8444 14.192 15.9983 14.2912C15.9983 14.2912 15.9888 14.2881 18.5753 6.34833C18.8037 5.64767 18.7203 4.96185 18.3616 4.46998C18.0034 3.97817 17.3991 3.6871 16.5994 3.6871H11.9601C11.0491 3.6871 10.2419 4.27217 9.96004 5.13632L3.52421 24.8906Z" fill="#F0145A"/>
<defs>
<linearGradient id="paint0_linear" x1="9.88726" y1="12.7261" x2="16.6762" y2="16.2841" gradientUnits="userSpaceOnUse">
<stop stop-color="#F0145A"/>
<stop offset="1" stop-color="#693264"/>
</linearGradient>
</defs>
</svg>

<svg xmlns="http://www.w3.org/2000/svg" width="22" height="25" fill="none" xmlns:v="https://vecta.io/nano"><g fill-rule="evenodd"><path d="M15.998 14.29h-6.11l2.692-8.166 3.046.018-1.769 5.385 3.037.002-.896 2.761z" fill="url(#A)"/><path d="M3.524 24.891H.5L7.295 4.036C7.896 2.19 9.622.939 11.568.939h5.407c1.63 0 2.991.687 3.837 1.847s1.085 2.646.592 4.161l-1.387 4.256c-.576 1.769-2.173 2.989-4.019 3.088 0 0-.01-.003 2.577-7.943.228-.701.145-1.386-.214-1.878s-.962-.783-1.762-.783H11.96c-.911 0-1.718.585-2 1.449L3.524 24.891z" fill="#f0145a"/></g><defs><linearGradient id="A" x1="9.887" y1="12.726" x2="16.676" y2="16.284" gradientUnits="userSpaceOnUse"><stop stop-color="#f0145a"/><stop offset="1" stop-color="#693264"/></linearGradient></defs></svg>
